X:1
T:Hoch tut euch auf
T:Christoph Willibald Gluck
T:Nach Psalm 24
T:Hoch tut euch auf
T:CPDL - Creative Commons Attribution Non Commercial 3.0
T:CPDL - Creative Commons Attribution Non Commercial 3.0
T:CPDL - Creative Commons Attribution Non Commercial 3.0
T:CPDL - Creative Commons Attribution Non Commercial 3.0
T:CPDL - Creative Commons Attribution Non Commercial 3.0
T:CPDL - Creative Commons Attribution Non Commercial 3.0
T:CPDL - Creative Commons Attribution Non Commercial 3.0
T:CPDL - Creative Commons Attribution Non Commercial 3.0
C:Christoph Willibald Gluck
Z:CPDL - Creative Commons Attribution Non Commercial 3.0
%%score [ ( 1 2 ) ( 3 4 ) ]
L:1/8
Q:1/4=120
M:2/2
K:Eb
V:1 treble nm="Sopran\nAlt"
V:2 treble 
V:3 bass nm="Tenor\nBass"
V:4 bass 
V:1
!mf!"^Majestätisch"!<(! E4 G3 G!<)! | !breath!B6 B2 |!f! !>!c4 c3 c |!>(! !breath!B8!>)! | %4
w: Hoch tut euch|auf, ihr|To- re der|Welt!|
!mf!!<(! G4 B3 B!<)! | !breath!e6!f! e2 | !>!e4 e3 e |!>(! !breath!e4!>)!!mf! B2 B2 | B4 A2 A2 | %9
w: Hoch tut euch|auf, ihr|To- re der|Welt, dass der|Kö- nig der|
 A4 !breath!G2 A2 | (G4 F2!>(! E2) | E4!>)! z4 |"^Soli"!p!!<(! E4 F3 F!<)! | %13
w: Eh- re ein-|zie- * *|he!|Wer ist der|
!>(! G4 !breath!E4!>)! |!<(! F4 G3 G!<)! |!mf! A4 !breath!A3 A |!>(! (B4 A4)!>)! | %17
w: Kö- nig,|wer ist der|Kö- nig, der|Eh- *|
 G6"^Chor"!f! B2 |!<(! B4!<)! c3 c | !>!e4!>(! d4!>)! |!ff! !>!e4 !wedge!B2 !wedge!c2 | %21
w: re? Der|Herr stark und|mäch- tig,|mäch- tig im|
 !breath!!^!d6!p! d2 | B4 c4 | !breath!d6 e2 | (d4"^dim." c3) B |!pp! B8 | %26
w: Streit, Gott|Ze- ba-|oth, Gott|Ze- * ba-|oth!|
"^Soli"!mf! E4!<(! G3 G!<)! | !breath!B6 B2 | c4 c3 c |!>(! !breath!B8!>)! | %30
w: Hoch tut euch|auf, ihr|To- re der|Welt!|
"^Chor"!f!!<(! G4 B3 B!<)! | !breath!e6!ff! e2 | !>!e4 e3 e |!>(! !breath!e4!>)!!mf! B2 B2 | %34
w: Hoch tut euch|auf, ihr|To- re der|Welt, dass der|
 B4 A2 A2 | A4 !breath!G2 A2 |!>(! (G4 F2 E2)!>)! |!p! E4 z2!f! B2 | !breath!!^!B6 B2 | %39
w: Kö- nig der|Eh- re ein-|zie- * *|he! Der|Herr, der|
 !^!B4 B2 B2 | (B4!>(! A2) G2 | !breath!F6!>)!!f! B2 | !breath!!^!B6 B2 | !^!B4 B2 B2 | %44
w: Herr ist ein|gro- * ßer|Gott, Der|Herr, der|Herr ist ein|
 (B4 A2) G2 |!>(! G4 !breath!F4!>)! |!p! E4!<(! G4 | B4!<)! !breath!A4 |!mf! =A2 c2 f2 e2 | %49
w: gro- * ßer|Kö- nig.|Al- les|lo- be|sei- nen heil‘- gen|
!>(! e4 !breath!d4!>)! |!mf!!<(! d4 f4!<)! | e4 !breath!c4 | _B2 c2!>(! B2 A2 | A4 !breath!G4!>)! | %54
w: Na- men,|al- les|lo- be|sei- nen heil‘- gen|Na- men,|
!p! G4 G4 | B4 !breath!B4 |"^Zurückhaltend" c2 A2 A2 G2 | F8 | !fermata!E6 || %59
w: al- les|lo- be|sei- nen heil‘- gen|Na-|men!|
"^Soloquartett"[Q:1/4=100]"^Langsamer" B>c | !breath!B6 B>c |!<(! !breath!B6!<)! B>c | %62
w: Singt dem|Herrn Lob und|Dank, Ruhm und|
!<(! !breath!B6!<)! Bd |!f! !breath!f4-!f! f!>!e !>!d!>!c | B6!>(! A2 | G4!>)! z4 | z2!p! B>_d c4 | %67
w: Preis in _|al- * * le _|E- wig-|keit!|Singt dem Herrn|
 z2 e>c B4 | z2"^cresc." B>_d c4 | z2 e>c B4 | z2!f!!<(! B2 =ABcd!<)! | e3 e dc!>(! B=A!>)! | %72
w: Lob und Dank,|Ruhm und Preis|singt dem Herrn|von nun * an in|al- le E- * wig- *|
 B4 z2!p! B>B | c6"^cresc." c>c | !breath!d6 d>d | !breath!e6!f! f2 | (g4 !>!f)!>!e !>!d!>!c | %77
w: keit! singt dem|Herrn Lob und|Dank, Ruhm und|Preis in|al- * * le _|
 B2 c2 !breath!d2 e2 | d2 !breath!e>e d2 e2 | f4 d4 | e4 z2!p! _d>d | c4 z2 e>e | %82
w: E- wig- keit, von|nun an in al- le|E- wig-|keit! Singt dem|Herrn Lob und|
!<(! =d4!<)! z2 f>f | e6!f! e2 | !>!f!>!e!>!d!>!c!>(! B2 A2 | G4!>)! z2!pp! F>F | G4 z2 G>G | %87
w: Dank, Ruhm und|Preis von|nun an bis in E- wig-|keit. Singt dem|Herrn Lob und|
 A4 z2 G>G | F4 z2!p! B>B | c2"^cresc." cd !breath!c2 c>c | d2 de !breath!d2 d>d | %91
w: Dank, Ruhm und|Preis! singt dem|Herrn, Lob und Dank, singt dem|Herrn, Ruhm und Preis singt dem|
 e2 ef !breath!e2!f! f2 | (g4 !>!f)!>!e !>!d!>!c | B2!>(! c2 !breath!d2!>)!!f! e2 | %94
w: Herrn, Lob und Dank in|al- * * * *|E- wig- keit, von|
 d2!<(! e>e!<)! d2 e2 | f4 d4 |!>(! !breath!e6!>)!!f! e2 | d2!<(! !breath!e>e!<)! d2 e2 | %98
w: nun an in al- le|E- wig-|keit, von|nun an in al- le|
!ff! !^!e4 !^!d4 | !breath!!^!g4 e4 | !^!e4 !^!d4 | !breath!!^!g4 e4 |[Q:1/4=88]"^rit." !^!e8 | %103
w: E- wig-|keit, in|E- wig-|keit, in|E-|
 !^!d8 |!>(! !breath!!fermata!e8!>)! |!p![Q:1/4=80]"^Langsam" A8 | !breath!!fermata!G8 |!pp! E8 | %108
w: wig-|keit,|A-|men!|A-|
 !fermata!E8 |] %109
w: men!|
V:2
 B,4 E3 E | G6 E2 | E4 E3 E | E8 | E4 G3 G | G6 G2 | A4 A3 A | G4 G2 F2 | E4 F2 F2 | F4 E2 F2 | %10
w: ||||||||||
 (E4 D2 E2) | E4 x4 | E4 D3 D | E4 E4 | D4 E3 E | F4 F3 F | F8 | E6 G2 | F4 F3 F | F4 F4 | %20
w: ||||||||||
 G4 G2 G2 | F6 F2 | F4 F4 | F6 G2 | F6 F2 | F8 | E4 E3 E | G6 G2 | A4 A3 A | G8 | E4 G3 G | G6 G2 | %32
w: ||||||||||||
 A4 A3 A | G4 G2 F2 | E4 F2 F2 | F4 E2 F2 | (E4 D2 E2) | E4 x2 G2 | F6 F2 | G4 A2 G2 | F6 E2 | %41
w: |||||||||
 D6 F2 | F6 F2 | G4 A2 G2 | F6 E2 | E4 D4 | E4 E4 | E4 E4 | F2 =A2 A2 c2 | c4 B4 | G4 G4 | G4 E4 | %52
w: |||||||||||
 F2 F2 F2 F2 | F4 E4 | F4 E4 | E4 E4 | E2 E2 D2 E2 | (E2 DC D4) | E6 || x2 | z2!p! G>G F4 | %61
w: ||||||||Singt dem Herrn|
 z2 F>A G4 | z2 G>G F4- | F2 F2 A4 | !>!A!>!A!>!G!>!F !>!E2 F2 | E4 x4 | x2 G>B A4 | x2 c>A G4 | %68
w: Lob und Dank,|Ruhm und Preis|_ in al-|le, in al- le E- wig-|keit!|||
 x2 G>B A4 | x2 c>A G4 | x2 F2 F2 FF | F3 F F2 F2 | F4 x2 F>F | F6 F>F | F6 F>F | B2 B>c B2 B2 | %76
w: |||||||* singt dem Herrn *|
 B6 E2 | EB AG F2 F2 | F2 F>F F2 B2 | c4 (B2 A2) | G2"^Halbchor" E>F E4- | E2 F>G F4- | %82
w: ||||* Singt dem Herrn|_ Lob und Dank,|
 F2 G>A G4- | G2 G2 !>!_A4- | AGAG F2 F2 | E4 x2 D>D | E4 x2 E>E | F4 x2 E>E | D4 x2 F>F | %89
w: _ Ruhm und Preis|_ von nun|_ an * * * *|||||
 F2 FF F2 F>F | B2 BB B2 B>B | B2 BB B2 B2 | B6 E2 | EB AG F2 F2 | F2 F>F F2 B2 | c4 (B2 A2) | %96
w: |||* le||||
 G6 F2 | F2 F>F F2 B2 | c4 B4 | B4 B4 | c4 B4 | B4 B4 | c8 | (B6 A2) | G8 | E8 | E8 | (C4 _C4) | %108
w: ||||||||||||
 B,8 |] %109
w: |
V:3
!mf!!<(! G,4 B,3 B,!<)! | !breath!E6 G,2 |!f! !>!A,4 A,3 A, |!>(! !breath!G,8!>)! | %4
w: ||||
!mf!!<(! B,4 E3 E!<)! | !breath!B,6!f! B,2 | !>!C4 C3 C |!>(! !breath!B,4!>)!!mf! B,2 B,2 | %8
w: ||||
 C4 C2 C2 | D4 !breath!E2 C2 | (B,4!>(! A,4) | G,4!>)! z4 |!p!!<(! G,4 B,3 B,!<)! | %13
w: |||||
!>(! B,4 !breath!G,4!>)! |!<(! B,4 B,3 B,!<)! |!mf! C4 !breath!C3 C |!>(! B,8!>)! | B,6!f! E2 | %18
w: |||||
!<(! D4!<)! E3 E | !>!C4!>(! B,4!>)! |!ff! !>!B,4 !wedge!E2 !wedge!E2 | !breath!!^!D6!p! B,2 | %22
w: ||||
 B,4 =A,4 | !breath!B,6 B,2 | (B,4"^dim." =A,2) E2 |!pp! D8 |!mf! G,4!<(! B,3 B,!<)! | %27
w: |||||
 !breath!E6 E2 | E4 E3 E |!>(! !breath!E8!>)! |!f!!<(! B,4 E3 E!<)! | !breath!B,6!ff! B,2 | %32
w: |||||
 !>!C4 E3 C |!>(! !breath!B,4!>)!!mf! B,2 B,2 | C4 C2 C2 | D4 !breath!E2 C2 |!>(! (B,4 A,4)!>)! | %37
w: |||||
!p! G,4 z2!f! E2 | !breath!!^!D6 D2 | !^!E4 D2 E2 | B,6!>(! B,2 | !breath!B,6!>)!!f! D2 | %42
w: |||||
 !breath!!^!D6 D2 | !^!E4 D2 E2 | B,6 B,2 |!>(! B,4 !breath!B,4!>)! |!p! G,4!<(! B,4 | %47
w: |||||
 _D4!<)! !breath!C4 |!mf! C2 C2 C2 F2 |!>(! F4 !breath!F4!>)! |!mf!!<(! F4 =B,4!<)! | %51
w: ||||
 C4 !breath!G,4 | _B,2 B,2!>(! B,2 B,2 | B,4 !breath!B,4!>)! |!p! =B,4 C4 | _B,4 !breath!_D4 | %56
w: |||||
"^Zurückhaltend" C2 C2 B,2 B,2 | B,6- B,A, | !fermata!G,6 || z2 | z2!p! B,>B, B,4 | z2 B,>B, B,4 | %62
w: ||||||
 z2"^cresc." B,>B, B,4- | !breath!B,2 D2!f! F4 | !breath!F!>!F!>!E!>!D !>!E2!>(! B,2 | %65
w: |||
 B,4!>)! z2!p! E>F | !breath!E6 E>F | !breath!E6 E>F | !breath!E6 E>F | !breath!E6!f! E2 | %70
w: * Singt dem|Herrn Lob und|Dank, Ruhm und|Preis, singt dem|Herrn von|
 !>!F4!<(! E2 ED!<)! | C3 C D2!>(! E2!>)! | D6!p! D>D | !breath!E2 C>D (C4 | B,2) D>E D2 B,>B, | %75
w: nun an bis in|||* Lob und Dank,|* singt dem Herrn * *|
 E6!f! D2 | (E4 !>!D)!>!C !>!B,!>!A, | G,G FE !breath!D2 C2 | D2 !breath!C>C B,2 E2 | E4 B,4 | %80
w: |||||
!>(! B,4!>)! z2!p! B,>B, | C4 z2 C>C |!<(! D4!<)! z2 D>D | !breath!E6!f! E2 | %84
w: * Singt dem|Herrn Lob und|Dank, Ruhm und|Preis von|
 !>!D!>!E!>!F!>!E!>(! D2 B,2 | B,2!pp! B,>C!>)! B,4- | B,2 B,>C B,4- | B,2 B,>C B,4- | %88
w: nun an * * * *|* Singt dem Herrn|_ Lob und Dank,|_ Ruhm und Preis,|
 B,2 B,>C B,2!p! D>D | E2"^cresc." EE !breath!E2 E>E | F2 FF !breath!F2 F>F | %91
w: _ singt dem Herrn, * *|||
 E2 EE !breath!E2!f! D2 | (E4 !>!D)!>!C !>!B,!>!A, | G,G!>(! FE !breath!D2!>)!!f! C2 | %94
w: |||
 D2!<(! C>C!<)! D2 G2 | F4 F4 |!>(! !breath!E6!>)!!f! C2 | D2!<(! !breath!C>C!<)! D2 G2 | %98
w: ||||
!ff! !^!F4 !^!F4 | !breath!!^!E4 E4 | !^!F4 !^!F4 | !breath!!^!E4 E4 | !^!F8 | !^!F8 | %104
w: ||||||
!>(! !breath!!fermata!E8!>)! |!p! (C4 _C4) | !breath!!fermata!B,8 |!pp! A,8 | !fermata!G,8 |] %109
w: |||||
V:4
 E,4 E,3 E, | E,6 E,2 | A,,4 A,,3 A,, | E,8 | E,4 E,3 E, | E,6 E,2 | A,4 A,3 A, | E,4 E,2 D,2 | %8
w: ||||||||
 C,4 F,2 F,2 | B,,4 C,2 A,,2 | B,,8 | E,4 x4 | C,4 B,,3 B,, | E,4 E,4 | (B,2 A,2) G,3 G, | %15
w: |||||||
 F,4 E,3 E, | D,8 | E,6 E,2 | B,4 =A,3 A, | =A,4 B,4 | E,4 E,2 E,2 | B,6 B,,2 | D,4 C,4 | %23
w: ||||||||
 B,,6 E,2 | F,6 F,2 | B,,8 | E,4 E,3 E, | E,6 E,2 | A,4 A,3 A, | E,8 | E,4 E,3 E, | E,6 E,2 | %32
w: |||||||||
 A,4 C3 A, | E,4 E,2 D,2 | C,4 F,2 F,2 | B,,4 C,2 A,,2 | B,,8 | E,4 x2 E,G, | _A,6 A,2 | %39
w: |||||||
 G,4 F,2 E,2 | D,6 E,2 | B,,6 B,2 | A,6 A,2 | G,4 F,2 E,2 | D,6 E,2 | B,,4 B,,4 | E,4 E,4 | %47
w: ||||||||
 A,,4 A,4 | F,2 F,2 F,2 =A,2 | B,4 B,4 | =B,4 G,4 | C4 C,4 | D,2 D,2 D,2 D,2 | E,4 E,4 | D,4 C,4 | %55
w: ||||||||
 G,4 G,4 | A,2 A,2 F,2 G,A, | (B,4 B,,4) | E,6 || x2 | x2 E,>E, D,4 | x2 D,>D, E,4 | %62
w: |||||||
 x2 E,>E, (D,4 | D,2) B,,2 B,4 | B,D,E,F, G,2 D,2 | E,4 z4 | z2!p! E,>E, A,4 | z2 A,,>C, E,4 | %68
w: ||||Singt dem Herrn|Lob und Dank,|
 z2"^cresc." E,>E, A,4 | z2 A,,>C, E,4 | z2!f! =D2 C2 CB, | =A,3 A, B,2 C2 | B,2 B,>C (B,4 | %73
w: Ruhm und Preis|singt dem Herrn|von nun an in||* Singt dem Herrn|
 =A,6) A,>A, | _A,6 A,>A, | G,6 F,2 | E,6 E,2 | E,2 A,2 B,2 =A,2 | B,2 =A,>A, B,2 G,2 | _A,4 B,4 | %80
w: _ Lob und|Dank, * *||||||
 E,4 x2 G,>G, | A,4 x2 =A,>A, | B,4 x2 =B,>B, | C6 C2 | _B,B,B,,C, D,2 D,2 | E,4 z2!pp! B,,>B,, | %86
w: |||||* Singt dem|
 E,4 z2 E,>E, | D,4 z2 E,>E, | B,,4 z2 B,>B, | =A,2 A,A, A,2 A,>A, | _A,2 A,A, A,2 A,>A, | %91
w: Herrn Lob und|Dank, Ruhm und|Preis * *|||
 G,2 G,G, G,2 F,2 | E,6 E,2 | E,2 A,2 B,2 =A,2 | B,2 =A,>A, B,2 G,2 | _A,4 B,4 | C6 =A,2 | %97
w: ||||||
 B,2 =A,>A, B,2 G,2 | _A,4 B,4 | E,4 G,4 | A,4 B,4 | E,4 G,4 | A,8 | B,8 | E,8 | E,8 | E,8 | %107
w: ||||||||||
 [E,,E,]8 | [E,,E,]8 |] %109
w: ||

